!!! OTL: Berkowitz86
!!! Chapter: 1
!!! Section: I
!!! Page: 22
!!! Mode: 
!!! Encoder: DJB
**kern
*staff1
*I"Piano
=1-
*clefC3
*k[b-]
*d:
*M6/8
4d\
8e\
8f\L
8g\
8a\J
=2
8.b-\L
16cc\K
8b-\J
8a\
8r
8f\
=3
8.a\L
16b-\K
8a\J
8f\L
8e\
8d\J
=4
4.e\
8r
8r
8f\
=5
4d\
8e\
8f\L
8g\
8a\J
=6
4b-\
8a\
8.b-\L
16cc\K
8b-\J
=7
8a\
8r
8g\
8.a\L
16b-\K
8a\J
=8
!!linebreak:original
8.g\L
16a\K
8g\J
8f\L
8e\
8d\J
=9
8.c#\L
16d\K
8e\J
4.d\
==
*-
